svg/file-icons/CASC.svg

<svg version="1.1" xmlns="http://www.w3.org/2000/svg" width="512px" height="512px"><path d="M362.0386658,0H149.9613495L0,149.9613495v212.0773163L149.9613495,512h212.0773163L512,362.0386658V149.9613495L362.0386658,0z M502.375946,358.0522766L358.0522766,502.375946H153.9477234L9.6240597,358.0522766V153.9477234L153.9477234,9.6240597h204.1045532L502.375946,153.9477234V358.0522766z M492.8633118,160.6135406v186.2497101L374.0362549,140.5112762L492.8633118,160.6135406z M352.7686768,19.1366901L262.67099,89.9712753l229.0112305,66.7356644L354.111969,19.1366901H352.7686768z M156.5434113,20.4813213l-9.937851,108.8193054L347.3153076,19.1366901H157.8880463L156.5434113,20.4813213z M415.26474,260.3422241l-54.2567444,225.625061l131.6080627-131.6080933L415.26474,260.3422241z M23.2369595,358.2122192l134.6510925,134.6510925h2.1104279l87.0281982-84.3239441L23.2369595,358.2122192z M355.090332,491.8849182l9.3127441-124.6850891L166.875412,492.8633118h187.236557L355.090332,491.8849182z M95.0178604,240.7938843l53.1595993-211.9466095L20.0145092,157.0102234L95.0178604,240.7938843z M136.0283203,358.722168L19.1366901,159.6792755v193.7713776L136.0283203,358.722168z M177.7163696,165.5824585c0,0-6.6774597-8.3299866-17.6615753-7.9544525c-10.7093048,0.3661346-26.5951538,4.9884796-26.4249725,34.5142365c0.1454163,25.2301941,15.2093811,34.1265564,27.3687134,33.4356842c11.8642731-0.674118,18.0660553-10.5160675,18.0660553-10.5160675l7.9544525,10.1116028c-6.0669556,7.4151611-13.75177,13.3247528-27.605484,13.3247528c-18.8536835,0-40.4695358-12.2049255-40.8837204-45.0077515c-2.7967529-50.6912231,49.4794083-60.3999176,67.2303543-37.445816L177.7163696,165.5824585z M252.5101013,237.2876587h15.6908569l-30.2107086-91.5688477h-16.6275787l-30.4449005,91.5688477h15.2224426l7.6161957-26.1818695h31.0172119L252.5101013,237.2876587z M217.2649231,199.044754l11.8785858-40.8345795l12.0661926,40.8345795H217.2649231z M242.7004242,330.4049683c27.1372833,20.5823975,42.4572296,7.3643799,41.2093353-4.0589905c-0.8311462-7.6087341-13.678772-12.06604-25.8708801-16.7855835c-13.7778015-5.3333435-19.3621826-12.6654358-19.3621826-25.8944702c0-22.2185059,33.9140625-34.803894,58.0361023-12.5827942l-8.4828796,9.6022644c-9.0530396-8.6831055-32.3113251-13.5407715-34.7471619,2.9805298c0,17.3685608,43.8450317,12.7087097,45.3277283,42.6800537c0,29.124115-41.1959229,38.4311829-65.0247345,14.2846375L242.7004242,330.4049683z M369.0351868,280.8499451c-7.9532776-13.4594116-43.7867432-14.4207764-43.0875549,27.3557739c0.6611938,39.5049438,35.4838867,37.8436279,45.8843079,23.1606445l8.1280823,10.1382446c-24.9960327,26.5691833-68.8701477,10.1382446-68.8701477-32.5122986c-1.5731812-45.4472961,42.3009644-64.3254242,66.5977783-37.4066467"/></svg>

<svg xmlns="http://www.w3.org/2000/svg" width="512" height="512"><path d="M362.039 0H149.96L0 149.961V362.04L149.961 512H362.04L512 362.039V149.96L362.039 0zm140.337 358.052L358.052 502.376H153.948L9.624 358.052V153.948L153.948 9.624h204.104l144.324 144.324v204.104zm-9.513-197.438v186.25L374.036 140.51l118.827 20.103zM352.77 19.137l-90.1 70.833 229.011 66.736-137.57-137.57h-1.343zM156.543 20.48l-9.937 108.82 200.71-110.164H157.887l-1.345 1.344zm258.722 239.861-54.257 225.625L492.616 354.36l-77.351-94.017zm-392.028 97.87 134.651 134.651h2.11l87.029-84.324-223.79-50.327zM355.09 491.885l9.313-124.685-197.528 125.663h187.237l.978-.978zM95.018 240.794l53.16-211.947L20.014 157.01l75.003 83.784zm41.01 117.928L19.137 159.68v193.772l116.891 5.271zm41.688-193.14s-6.677-8.33-17.661-7.954c-10.71.366-26.595 4.988-26.425 34.514.145 25.23 15.21 34.127 27.369 33.436 11.864-.674 18.066-10.516 18.066-10.516l7.954 10.111c-6.067 7.416-13.752 13.325-27.605 13.325-18.854 0-40.47-12.205-40.884-45.008-2.797-50.69 49.48-60.4 67.23-37.445l-8.044 9.537zm74.794 71.706h15.691l-30.21-91.57h-16.628l-30.445 91.57h15.222l7.616-26.182h31.018l7.736 26.182zm-35.245-38.243 11.879-40.835 12.066 40.835h-23.945zm25.435 131.36c27.138 20.582 42.458 7.364 41.21-4.059-.831-7.609-13.679-12.066-25.871-16.786-13.778-5.333-19.362-12.665-19.362-25.894 0-22.219 33.914-34.804 58.036-12.583l-8.483 9.602c-9.053-8.683-32.311-13.54-34.747 2.98 0 17.37 43.845 12.71 45.327 42.681 0 29.124-41.195 38.431-65.024 14.285l8.914-10.226zm126.335-49.555c-7.953-13.46-43.787-14.42-43.087 27.356.66 39.505 35.484 37.843 45.884 23.16l8.128 10.139c-24.996 26.569-68.87 10.138-68.87-32.513-1.573-45.447 42.3-64.325 66.598-37.406"/></svg>
